src/assets/img/logo/bnusd.svg

<svg clip-rule="evenodd" fill-rule="evenodd" stroke-linejoin="round" stroke-miterlimit="2" viewBox="0 0 512 512" xmlns="http://www.w3.org/2000/svg" xmlns:xlink="http://www.w3.org/1999/xlink"><clipPath id="a"><path clip-rule="evenodd" d="m0 0h11v24h-11z"/></clipPath><circle cx="256" cy="256" fill="#0c2a4d" r="256"/><g clip-path="url(#a)" transform="matrix(14 0 0 14 179 88)"><path d="m3725.35 952.456c0-2.675-.88-3.874-3.98-4.949-2.47-.925-2.85-1.35-2.85-2.5v-.1c0-.817.66-1.491 1.48-1.5.86.011 1.57.693 1.62 1.55h3.15c-.07-2.125-1.4-3.974-3.1-4.3v-3.325h-3.17v3.325c-2.06.491-3.47 2.434-3.3 4.548-.09 2.057 1.24 3.925 3.22 4.5.92.27 1.8.648 2.63 1.125.64.343 1.02 1.029.97 1.75v.03c0 1.122-.92 2.045-2.05 2.045-.01 0-.03-.001-.05-.001h-.02c-1.14 0-2.08-.939-2.08-2.08v-.069h-3.35v.325c.09 2.313 1.76 4.281 4.03 4.748v3.3h3.17v-3.3c2.28-.606 3.84-2.764 3.68-5.122z" fill="#32c9a4" transform="translate(-3714.47 -937.332)"/></g></svg>

<?xml version="1.0" encoding="UTF-8" standalone="no"?>
<!DOCTYPE svg PUBLIC "-//W3C//DTD SVG 1.1//EN" "http://www.w3.org/Graphics/SVG/1.1/DTD/svg11.dtd">
<svg width="100%" height="100%" viewBox="0 0 512 512" version="1.1" xmlns="http://www.w3.org/2000/svg" xmlns:xlink="http://www.w3.org/1999/xlink" xml:space="preserve" xmlns:serif="http://www.serif.com/" style="fill-rule:evenodd;clip-rule:evenodd;stroke-linejoin:round;stroke-miterlimit:2;">
    <circle cx="256" cy="256" r="256" style="fill:rgb(12,42,77);"/>
    <g transform="matrix(14,0,0,14,256,256)">
        <g transform="matrix(1,0,0,1,-5.5,-12)">
            <clipPath id="_clip1">
                <rect x="0" y="0" width="11" height="24"/>
            </clipPath>
            <g clip-path="url(#_clip1)">
                <g transform="matrix(1,0,0,1,-3714.47,-937.332)">
                    <path d="M3725.35,952.456C3725.35,949.781 3724.47,948.582 3721.37,947.507C3718.9,946.582 3718.52,946.157 3718.52,945.007L3718.52,944.907C3718.52,944.09 3719.18,943.416 3720,943.407C3720.86,943.418 3721.57,944.1 3721.62,944.957L3724.77,944.957C3724.7,942.832 3723.37,940.983 3721.67,940.657L3721.67,937.332L3718.5,937.332L3718.5,940.657C3716.44,941.148 3715.03,943.091 3715.2,945.205C3715.11,947.262 3716.44,949.13 3718.42,949.705C3719.34,949.975 3720.22,950.353 3721.05,950.83C3721.69,951.173 3722.07,951.859 3722.02,952.58L3722.02,952.61C3722.02,953.732 3721.1,954.655 3719.97,954.655C3719.96,954.655 3719.94,954.654 3719.92,954.654L3719.9,954.654C3718.76,954.654 3717.82,953.715 3717.82,952.574L3717.82,952.505L3714.47,952.505L3714.47,952.83C3714.56,955.143 3716.23,957.111 3718.5,957.578L3718.5,960.878L3721.67,960.878L3721.67,957.578C3723.95,956.972 3725.51,954.814 3725.35,952.456Z" style="fill:rgb(50,201,164);"/>
                </g>
            </g>
        </g>
    </g>
</svg>
